X:1425
T:Big Leap, The
C:Larry Redican
R:reel
Z:id:hn-reel-490
M:C|
K:G
G2BG DGBd|g2fg edBA|G2BG DGBG|ABAG FDEF|
GEED EDB,A,|G,gfg edBA|G2BG DGBG|AGFA G4:|
|:dggf gedg|eaag ageg|fd~d2 bdaf|dfaf gfed|
BG~G2 EGDE|Ggfg edBA|G2BG DGBG|AGFA G4:|
"variations"
|:GABG DGBd|g2fg edBA|GABG DGBG|ABAG FDEF|
GEFD EDEF|Gg~g2 edBA|GABG DGBG|AGFA G4:|
|:dggf gfed|ea~a2 ageg|fdad bdad|fgaf gfed|
BG~G2 EGDE|Gg~g2 edBA|GABG DGBG|AGFA G4:|


